svgs/solid/badge.svg

<svg xmlns="http://www.w3.org/2000/svg" viewBox="0 0 512 512"><!-- Font Awesome Pro 6.0.0-alpha2 by @fontawesome - https://fontawesome.com License - https://fontawesome.com/license (Commercial License) --><path d="M454.875 338.375C469.625 370.75 463.75 410.25 437 437C410.375 463.625 371 469.75 338.375 454.875C325.875 488.25 293.75 512 256 512S186.125 488.25 173.625 454.875C141.125 469.75 101.625 463.625 75 437C48.25 410.375 42.375 370.75 57.125 338.375C23.75 325.875 0 293.75 0 256S23.75 186.125 57.125 173.625C42.375 141.25 48.25 101.75 75 75C101.625 48.25 141.25 42.375 173.625 57.125C186.125 23.75 218.25 0 256 0S325.875 23.75 338.375 57.125C370.75 42.375 410.25 48.25 437 75C463.75 101.75 469.625 141.25 454.875 173.625C488.25 186.125 512 218.25 512 256S488.25 325.875 454.875 338.375Z"/></svg>

<svg xmlns="http://www.w3.org/2000/svg" viewBox="0 0 512 512"><!--! Font Awesome Pro 6.0.0-alpha3 by @fontawesome - https://fontawesome.com License - https://fontawesome.com/license (Commercial License) --><path d="M454.9 338.4c14.75 32.38 8.875 71.87-17.88 98.63c-26.62 26.62-66 32.75-98.63 17.88C325.9 488.2 293.8 512 256 512s-69.88-23.75-82.38-57.13c-32.5 14.88-72 8.75-98.62-17.88c-26.75-26.62-32.62-66.25-17.88-98.63C23.75 325.9 0 293.8 0 256s23.75-69.88 57.12-82.38C42.38 141.2 48.25 101.8 75 75c26.62-26.75 66.25-32.62 98.62-17.88C186.1 23.75 218.2 0 256 0s69.88 23.75 82.38 57.12C370.8 42.38 410.2 48.25 437 75c26.75 26.75 32.63 66.25 17.88 98.62C488.3 186.1 512 218.2 512 256S488.3 325.9 454.9 338.4z"/></svg>
